X: 2066
M: C|
L: 1/8
K: Am
zc |\
(GF)(GA) (BG)(AF) | D2 d4 (de) |\
f^g(ag) (ag)(fd) | (fd)(cA) f3F |\
(GF)(GA) (BG)(AF) | D2d2- d2 :|
|: zc |\
(AG)(Ac) (Ac)(AG) | (FG)(AB) c2(BA) |\
(GF)(GA) (cG)(AF) | D2d2- d2ae |\
(fF)(fg) (ag)(fd) | (cA)(cd) f3F |\
(FG)(AB) (cA)(GF) | D2d2- d2 :|
|: zc |\
(AG)(Ac) (Ac)(AG) | F2 f4 (ef) |\
(gf)(ga) (ga)(gf) |\
(dc)(df) (ga)(gd) | (fc)(dA) (fg)(fF) |\
(GF)(GA) (cG)(AF) | D2d2- d2 |]


